assets/koyeb/mono.svg

<svg viewBox="0 0 24 24" xmlns="http://www.w3.org/2000/svg"><path d="m0 12.822v-5.778l11.985-6.929 12.015 6.922v5.77l-12.008-6.915zm11.985 1.114-10.065 5.823-1.92-1.114v-3.557l11.985-6.93 12.015 6.931v3.542l-1.92 1.13zm-3.028 9.949-5.007-2.881 8.036-4.656 8.066 4.656-5.009 2.88-3.05-1.759z"/></svg>

<svg xmlns="http://www.w3.org/2000/svg" viewBox="0 0 24 24"><path d="M0 12.822V7.044L11.985.115 24 7.037v5.77L11.992 5.892zm11.985 1.114L1.92 19.759 0 18.645v-3.557l11.985-6.93L24 15.089v3.542l-1.92 1.13zm-3.028 9.949L3.95 21.004l8.036-4.656 8.066 4.656-5.009 2.88-3.05-1.759z"/></svg>
